svg/business/currency_cny_2_fill.svg

<?xml version="1.0" encoding="UTF-8"?>
<svg width="24px" height="24px" viewBox="0 0 24 24" version="1.1" xmlns="http://www.w3.org/2000/svg" xmlns:xlink="http://www.w3.org/1999/xlink">
    <title>currency_cny_2_fill</title>
    <g id="页面-1" stroke="none" stroke-width="1" fill="none" fill-rule="evenodd">
        <g id="Business" transform="translate(-48.000000, -336.000000)" fill-rule="nonzero">
            <g id="currency_cny_2_fill" transform="translate(48.000000, 336.000000)">
                <path d="M24,0 L24,24 L0,24 L0,0 L24,0 Z M12.5934901,23.257841 L12.5819402,23.2595131 L12.5108777,23.2950439 L12.4918791,23.2987469 L12.4918791,23.2987469 L12.4767152,23.2950439 L12.4056548,23.2595131 C12.3958229,23.2563662 12.3870493,23.2590235 12.3821421,23.2649074 L12.3780323,23.275831 L12.360941,23.7031097 L12.3658947,23.7234994 L12.3769048,23.7357139 L12.4804777,23.8096931 L12.4953491,23.8136134 L12.4953491,23.8136134 L12.5071152,23.8096931 L12.6106902,23.7357139 L12.6232938,23.7196733 L12.6232938,23.7196733 L12.6266527,23.7031097 L12.609561,23.275831 C12.6075724,23.2657013 12.6010112,23.2592993 12.5934901,23.257841 L12.5934901,23.257841 Z M12.8583906,23.1452862 L12.8445485,23.1473072 L12.6598443,23.2396597 L12.6498822,23.2499052 L12.6498822,23.2499052 L12.6471943,23.2611114 L12.6650943,23.6906389 L12.6699349,23.7034178 L12.6699349,23.7034178 L12.678386,23.7104931 L12.8793402,23.8032389 C12.8914285,23.8068999 12.9022333,23.8029875 12.9078286,23.7952264 L12.9118235,23.7811639 L12.8776777,23.1665331 C12.8752882,23.1545897 12.8674102,23.1470016 12.8583906,23.1452862 L12.8583906,23.1452862 Z M12.1430473,23.1473072 C12.1332178,23.1423925 12.1221763,23.1452606 12.1156365,23.1525954 L12.1099173,23.1665331 L12.0757714,23.7811639 C12.0751323,23.7926639 12.0828099,23.8018602 12.0926481,23.8045676 L12.108256,23.8032389 L12.3092106,23.7104931 L12.3186497,23.7024347 L12.3186497,23.7024347 L12.3225043,23.6906389 L12.340401,23.2611114 L12.337245,23.2485176 L12.337245,23.2485176 L12.3277531,23.2396597 L12.1430473,23.1473072 Z" id="MingCute" fill-rule="nonzero"></path>
                <path d="M8.27195,3.20496 C7.83289,2.50245 6.90746,2.28889 6.20496,2.72796 C5.50245,3.16702 5.28889,4.09245 5.72796,4.79496 L9.29358,10.4999 L6.99988,10.4999 C6.17145,10.4999 5.4997537,11.1715 5.4997537,11.9999 C5.4997537,12.8284 6.17145,13.4999 6.99988,13.4999 L10.5,13.4999 L10.5,14.5 L6.9999,14.5 C6.17147,14.5 5.4999,15.1715 5.4999,16 C5.4999,16.8284 6.17147,17.5 6.9999,17.5 L10.5,17.5 L10.5,20 C10.5,20.8284 11.1715,21.5 12,21.5 C12.8284,21.5 13.5,20.8284 13.5,20 L13.5,17.5 L16.9999,17.5 C17.8283,17.5 18.4999,16.8284 18.4999,16 C18.4999,15.1715 17.8283,14.5 16.9999,14.5 L13.5,14.5 L13.5,13.4999 L16.9999,13.4999 C17.8283,13.4999 18.4999,12.8284 18.4999,11.9999 C18.4999,11.1715 17.8283,10.4999 16.9999,10.4999 L14.7063,10.4999 L18.272,4.79496 C18.711,4.09245 18.4975,3.16702 17.795,2.72796 C17.0925,2.28889 16.167,2.50245 15.728,3.20496 L12,9.16976 L8.27195,3.20496 Z" id="路径" fill="#09244B"></path>
            </g>
        </g>
    </g>
</svg>

<svg xmlns="http://www.w3.org/2000/svg" width="24" height="24"><g fill="none" fill-rule="nonzero"><path d="M24 0v24H0V0zM12.593 23.258l-.011.002-.071.035-.02.004-.014-.004-.071-.035c-.01-.004-.019-.001-.024.005l-.004.01-.017.428.005.02.01.013.104.074.015.004.012-.004.104-.074.012-.016.004-.017-.017-.427c-.002-.01-.009-.017-.017-.018m.265-.113-.013.002-.185.093-.01.01-.003.011.018.43.005.012.008.007.201.093c.012.004.023 0 .029-.008l.004-.014-.034-.614c-.003-.012-.01-.02-.02-.022m-.715.002a.023.023 0 0 0-.027.006l-.006.014-.034.614c0 .012.007.02.017.024l.015-.002.201-.093.01-.008.004-.011.017-.43-.003-.012-.01-.01z"/><path fill="#09244B" d="M8.272 3.205a1.5 1.5 0 1 0-2.544 1.59L9.294 10.5H7a1.5 1.5 0 1 0 0 3h3.5v1H7a1.5 1.5 0 1 0 0 3h3.5V20a1.5 1.5 0 1 0 3 0v-2.5H17a1.5 1.5 0 0 0 0-3h-3.5v-1H17a1.5 1.5 0 1 0 0-3h-2.294l3.566-5.705a1.5 1.5 0 0 0-2.544-1.59L12 9.17z"/></g></svg>
